X: 54
T: Akşam Olur Kervan Çıkar Yokuşa
C: Mahmut Güzelgöz
O: Turkey
F: http://compmusic.upf.edu/node/140
N: beyati--turku--kapali_curcuna--aksam_olur--urfa
N: makam= beyati
N: form= turku
N: usul= kapali_curcuna = 10/8
M: 10/8
L: 1/16
K: C _2/4B   
Q: 1/4=240
%%MIDI tuningsystem comma53
e4 ^3/4f2g4=f2 {g}e2{f}d4B2  | c4 B2B2 A2A2 G2d4B2  | \
w:  ARANAĞME  |   | 
c4 B2B2 A2A2 G2d4B2  | 
w:   | 
c4 B2B2 A2A2 G2{c}d4B2  | c4 B2B2 A2A4AB cde2  | \
w:   |   | 
e4 ^3/4f2g4=f2 {g}e2{f}d4B2  | 
w:  ARANAĞME  | 
c4 B2B2 A2A2 G2d4B2  | c4 B2B2 A2A2 G2d4B2  | \
w:   |   | 
c4 B2B2 A2A2 G2{c}d4B2  | 
w:   | 
c4 B2B2 A2A4dc BABc  | A4 A2{A}d4d4d6  | \
w:   |  *  Ak *  şam  o lur   | 
d6d4d4d4B2  | 
w:  ker van  çı kar   | 
c4 B2B2 A2d2 {e}c2{e}d3.e.c.B  | A4 A2{A}d4d4d6  | \
w:  yo *  ku *  şa   *  *  *  *  SAZ  |  *  Ak *  şam  o lur   | 
d6d4d4d4B2  | c4 B2B2 A2d2 {e}c2{e}d2 A2d2  | 
w:  ker van  çı kar   |  yo *  ku *  şa   *  *  *  *  SAZ  | 
e4 ^3/4f2g4=f2 {g}e2{f}d4B2  | c4 B2B2 A2A2 G2d4B2  | \
w:  Çif *  te  koç *  *  *  lar   |  bir *  bi *  rin *  den   | 
c4 B2B2 A2A2 G2d4B2  | 
w:  to *  ku *  şa   *  Hay  | 
c4 B2B2 A2A2 G2{c}d4B2  | c4 B2B2 A2A4AB cde2  | \
w:  ran  *  ba *  la  *  *  kur  |  ban  *  ba *  la   SAZ  | 
e4 ^3/4f2g4=f2 {g}e2{f}d4B2  | 
w:  Çif *  te  koç *  *  *  lar   | 
c4 B2B2 A2A2 G2d4B2  | c4 B2B2 A2A2 G2d4B2  | \
w:  bir *  bi *  rin *  den   |  to *  ku *  şa   *  Hay  | 
c4 B2B2 A2A2 G2{c}d4B2  | 
w:  ran  *  ba *  la  *  *  kur  | 
c4 B2B2 A2A4dc BABc  | d4 A2{A}d4d4d6  | \
w:  ban  *  ba *  la   SAZ  |  *  Kur *  ban  o lam   | 
d6d4d4d4B2  | 
w:  o  sen de ki   | 
c4 B2B2 A2d2 {e}c2{e}d3.e.c.B  | d4 A2{A}d4d4d6  | \
w:  ba *  kı *  şa   *  *  *  *  SAZ  |  *  Kur *  ban  o lam   | 
d6d4d4d4B2  | c4 B2B2 A2d2 {e}c2{e}d2 A2d2  | 
w:  o  sen de ki   |  ba *  kı *  şa   *  *  *  *  SAZ  | 
e4 ^3/4f2g4=f2 {g}e2{f}d4B2  | c4 B2B2 A2A2 G2d4B2  | \
w:  Şir *  van lı  *  *  *  şal  |  va rı  da  *  ka *  ra   | 
c4 B2B2 A2A2 G2d4B2  | 
w:  göz  *  ba *  la   *  Hay  | 
c4 B2B2 A2A2 G2{c}d4B2  | c4 B2B2 A2A4AB cde2  | \
w:  ran  *  ba *  la  *  *  kur  |  ban  *  ba *  la   SAZ  | 
e4 ^3/4f2g4=f2 {g}e2{f}d4B2  | 
w:  Şir *  van lı  *  *  *  şal  | 
c4 B2B2 A2A2 G2d4B2  | c4 B2B2 A2A2 G2d4B2  | \
w:  va rı  da  *  ka *  ra   |  göz  *  ba *  la   *  Hay  | 
c4 B2B2 A2A2 G2{c}d4B2  | 
w:  ran  *  ba *  la  *  *  kur  | 
c4 B2B2 A2A4ag fedf  | e4 ^3/4f2g4=f2 {g}e2{f}d4B2  | \
w:  ban  *  ba *  la   SAZ  |  ARANAĞME  | 
c4 B2B2 A2A2 G2d4B2  | 
w:   | 
c4 B2B2 A2A2 G2d4B2  | c4 B2B2 A2A2 G2{c}d4B2  | \
w:   |   | 
c4 B2B2 A2A4AB cde2  | 
w:   | 
e4 ^3/4f2g4=f2 {g}e2{f}d4B2  | c4 B2B2 A2A2 G2d4B2  | \
w:  ARANAĞME  |   | 
c4 B2B2 A2A2 G2d4B2  | 
w:   | 
c4 B2B2 A2A2 G2{c}d4B2  | c4 B2B2 A2A4dc BABc  | \
w:   |   | 
A4 A2{A}d4d4d6  | 
w:  *  Ak *  şam  o lur   | 
d6d4d4d4B2  | c4 B2B2 A2d2 {e}c2{e}d3.e.c.B  | \
w:  ker van  çı kar   |  yo *  ku *  şa   *  *  *  *  SAZ  | 
A4 A2{A}d4d4d6  | d6d4d4d4B2  | 
w:  *  Ak *  şam  o lur   |  ker van  çı kar   | 
c4 B2B2 A2d2 {e}c2{e}d2 A2d2  | e4 ^3/4f2g4=f2 {g}e2{f}d4B2  | \
w:  yo *  ku *  şa   *  *  *  *  SAZ  |  Çif *  te  koç *  *  *  lar   | 
c4 B2B2 A2A2 G2d4B2  | 
w:  bir *  bi *  rin *  den   | 
c4 B2B2 A2A2 G2d4B2  | c4 B2B2 A2A2 G2{c}d4B2  | \
w:  to *  ku *  şa   *  Hay  |  ran  *  ba *  la  *  *  kur  | 
c4 B2B2 A2A4AB cde2  | 
w:  ban  *  ba *  la   SAZ  | 
e4 ^3/4f2g4=f2 {g}e2{f}d4B2  | c4 B2B2 A2A2 G2d4B2  | \
w:  Çif *  te  koç *  *  *  lar   |  bir *  bi *  rin *  den   | 
c4 B2B2 A2A2 G2d4B2  | 
w:  to *  ku *  şa   *  Hay  | 
c4 B2B2 A2A2 G2{c}d4B2  | c4 B2B2 A2A4dc BABc  | \
w:  ran  *  ba *  la  *  *  kur  |  ban  *  ba *  la   SAZ  | 
d4 A2{A}d4d4d6  | 
w:  *  Kur *  ban  o lam   | 
d6d4d4d4B2  | c4 B2B2 A2d2 {e}c2{e}d3.e.c.B  | \
w:  o  sen de ki   |  ba *  kı *  şa   *  *  *  *  SAZ  | 
d4 A2{A}d4d4d6  | d6d4d4d4B2  | 
w:  *  Kur *  ban  o lam   |  o  sen de ki   | 
c4 B2B2 A2d2 {e}c2{e}d2 A2d2  | e4 ^3/4f2g4=f2 {g}e2{f}d4B2  | \
w:  ba *  kı *  şa   *  *  *  *  SAZ  |  Şir *  van lı  *  *  *  şal  | 
c4 B2B2 A2A2 G2d4B2  | 
w:  va rı  da  *  ka *  ra   | 
c4 B2B2 A2A2 G2d4B2  | c4 B2B2 A2A2 G2{c}d4B2  | \
w:  göz  *  ba *  la   *  Hay  |  ran  *  ba *  la  *  *  kur  | 
c4 B2B2 A2A4AB cde2  | 
w:  ban  *  ba *  la   SAZ  | 
e4 ^3/4f2g4=f2 {g}e2{f}d4B2  | c4 B2B2 A2A2 G2d4B2  | \
w:  Şir *  van lı  *  *  *  şal  |  va rı  da  *  ka *  ra   | 
c4 B2B2 A2A2 G2d4B2  | 
w:  göz  *  ba *  la   *  Hay  | 
c4 B2B2 A2A2 G2{c}d4B2  | c4 B2B2 A2A8-A2  | |


